X:1
T:Sing Again That Sweet Story
T:Sing Again That Sweet Story
T:Carl Harold Lowden
T:Lizzie de Armond, 1911
T:Public Domain Courtesy of the Cyber Hymnal™
T:Public Domain Courtesy of the Cyber Hymnal™
C:Carl Harold Lowden
Z:Public Domain
Z:Courtesy of the Cyber Hymnal™
%%score ( 1 2 ) ( 3 4 )
L:1/8
Q:1/4=90
M:4/4
K:F
V:1 treble 
V:2 treble 
V:3 bass 
V:4 bass 
V:1
 C2 | [FA]>[F^G] [FA]3 [FA][^FB][FA] | [FA]>[FG] D4 D2 | [EG]>[^D^F] [EG]3 [EG][EA][EG] | %4
w: 1.~O|sing a- gain that sto- ry|sweet and true, The|joy- ful strain that filled the|
w: 2.~Thro’|still- ness deep, the glad ex-|ult- ant lay Floats|down once more our hearts to|
w: 3.~O|sing a- gain that sto- ry|won- drous sweet, Shine|out, ye stars, with clear ce-|
 [CG]>[CF] C4 C2 | [FA]>[F^G] [FA]3 [FA][^D=B][Dc] | [Ec]>[EG] [EG]4 [CE]2 | %7
w: sky so bright, When|an- gels came thro’ Hea- ven’s|star- ry ways, Good|
w: calm and cheer, Re-|joice, O earth! al- though He|wears no crown, A|
w: les- tial glow; By|faith we see the low- ly|man- ger bed, And|
 [=B,G]>[B,G] [B,G]3 [B,G][B,A][B,D] | ([B,CG]4 [CE^Gc]4) || %9
w: news to bring one ho- ly|night. *|
w: king en- throned, the Lord is|here. *|
w: praise His name whose love we|know. *|
[M:3/4][Q:1/4=110] (z2 z2)"^Refrain" A2 x2 | z2 z2 F2 x2 | z2 z2 F2 x2 | z2 z2 F2 x2 | %13
w: ||||
w: Sing|the|sto-|ry,|
w: ||||
 z2 z2 E2 x2 | z2 z2 D2 x2 | z2 [B,C]2 [B,C]2 | z2 [B,C]2 [B,C]2 | z2 z2 B2 x2 | z2 z2 B2 x2 | %19
w: ||||||
w: bless-|èd|||sto-|ry,|
w: ||||||
 z2 z2 d2 x2 | !fermata!z2 E2 [EBd]2 | z2 z2 c2 x2 | z2 z2 d2 x2 | z2 [FA]2 [FA]2 | %24
w: |||||
w: Ev-|* er|sweet|and||
w: |||||
 z2 [EB]2 [EB]2 | z2 z2 c2 x2 | z2 z2 A2 x2 | z2 z2 G2 x2 | z2 [=B,DF]2 [B,DF]2 | z2 z2 [Bd]2 x2 | %30
w: ||||||
w: |true;|“Christ|the||lov-|
w: ||||||
 (z2 z2) [GB]2 x2 | (z2 [FA]2) x2 | z2 x8 | (z2 z2) G2 x2 | (z2 z2) d2 x2 | z2 z2 c2 x2 | %36
w: ||||||
w: ing|||heav’n-|ly|Sav-|
w: ||||||
 z2 z2 A2 x2 | z2 [=B,DF]2 D2 | E2 [EBc]4 | [A,CF]6- | [A,CF]4 |] %41
w: |||||
w: ior|* Comes|* this|day||
w: |||||
V:2
 C2 | x8 | x2 D4 D2 | x8 | x2 C4 C2 | x8 | x8 | x8 | x8 ||[M:3/4] c4 [CFA]4 | G4 [A,C]4 | %11
 E4 [A,C]4 | G4 [A,C]4 | F4 [B,C]4 | F4 [B,C]4 | E4 x2 | E4 x2 | d4 [EG]4 | A4 [CE]4 | d4 [EB]4 | %20
 [ce]4 x2 | d4 [FA]4 | =B4 [F^G]4 | c6- | c6 | f4 [FAc]4 | B4 [CD^F]4 | A4 [=B,DF]4 | G6 | %29
 [Bd]4 E4 | [Ac]4 E4 | [GB]4 E2 | [FA]6 D2 D2 | (A4 [B,D]4) | e4 [F^G]4 | d4 [FA]4 | B4 [CDF]4 | %37
 G4 x2 | x6 | x6 | x4 |] %41
V:3
 [F,A,]2 | [F,C]>[F,=B,] [F,C]3 [F,C][D,D][D,C] | [G,=B,]>[G,B,] [G,B,]4 [G,B,]2 | %3
 [C,B,]>[C,A,] [C,B,]3 [C,B,][C,C][C,B,] | [F,A,]>[F,A,] [F,A,]4 [F,A,]2 | %5
 [F,C]>[F,=B,] [F,C]3 [F,C][^F,B,][F,A,] | G,>[G,C] [G,C]4 G,2 | %7
 [G,,F,]>[G,,F,] [G,,F,]3 [G,,F,][G,,F,][G,,F,] | ([C,E,]4 [C,B,]4) ||[M:3/4] [F,,F,]6 x2 | %10
 [C,,C,]6 x2 | [C,,A,,]6 x2 | [E,,C,]6 x2 | [G,,G,]6 x2 | [C,,C,]6 x2 | ([G,,G,]6 | [C,,C,]6) | %17
 [G,,G,]6 x2 | [C,,C,]6 x2 | [G,,G,]6 x2 | !fermata![C,,C,]6 | [F,,F,]6 x2 | [F,,F,]6 x2 | %23
 [F,,F,]6 | [G,,G,]6 | [A,,A,]6 x2 | [D,,D,]6 x2 | [A,,A,]6 x2 | [D,,D,]6 | [G,,G,]6 x2 | %30
 [C,,C,]6 x2 | [^C,,=C,]4 [D,,D,]2 | [D,,D,]6 x4 | [B,,,B,,]6 x2 | [=B,,,=B,,]6 x2 | [C,,C,]6 x2 | %36
 [D,,D,]6 x2 | [B,,,G,,]6 | [C,,C,]6 | ([F,,F,]2 [C,,C,]2 [A,,,A,,]2 | [F,,,F,,]4) |] %41
V:4
 x2 | x8 | x8 | x8 | x8 | x8 | G,3/2 x3 G,2 x3/2 | x8 | x8 ||[M:3/4] x8 | x8 | x8 | x8 | x8 | x8 | %15
 x6 | x6 | x8 | x8 | x8 | x6 | x8 | x8 | x6 | x6 | x8 | x8 | x8 | x6 | x8 | x8 | x6 | x10 | x8 | %34
 x8 | x8 | x8 | x6 | x6 | x6 | x4 |] %41

